X:1
T:Peter Man
C:Kathryn Tickell
M:4/4
L:1/8
R:reel
K:Amix
c3 B ABcd|effe afed|cAdB ABBA|GAFA AGAB|
c2 cB ABcd|effe afec|A2 cA GAFA|AEDE FGAB:|
|:EBdB cBAB|EBea ^gedB|EBdB cBAB|GAFA AGAB|
EBdB cBAB|EBea ^gedB|c3 B ABBA|GAFA AGAB:|
